static/images/contact-yellow.svg

<svg width="746" height="681" viewBox="0 0 746 681" fill="none" xmlns="http://www.w3.org/2000/svg">
<path d="M661.276 62.9562C704.172 107.037 709.467 173.841 707.345 221.021C705.123 268.076 690.847 315.424 699.729 361.518C708.943 409.803 742.542 451.751 745.681 500.63C748.273 542.986 727.176 584.156 697.273 614.399C651.314 661.062 583.907 685.684 518.557 679.565C456.47 673.683 400.295 642.352 341.517 621.515C270.619 596.313 194.394 585.849 126.683 553.163C58.971 520.478 -1.95464 456.312 0.914031 381.086C3.26341 313.856 54.5986 259.378 105.598 215.412C167.697 162.092 234.671 114.059 305.155 72.4149C360.876 39.3908 420.544 9.7399 484.849 2.36349C549.155 -5.01291 619.53 13.4417 661.276 62.9562Z" fill="#FEF0A5"/>
</svg>

<svg width="746" height="681" fill="none" xmlns="http://www.w3.org/2000/svg"><path d="M661.276 62.956c42.896 44.081 48.191 110.885 46.069 158.065-2.222 47.055-16.498 94.403-7.616 140.497 9.214 48.285 42.813 90.233 45.952 139.112 2.592 42.356-18.505 83.526-48.408 113.769-45.959 46.663-113.366 71.285-178.716 65.166-62.087-5.882-118.262-37.213-177.04-58.05-70.898-25.202-147.123-35.666-214.834-68.352C58.971 520.478-1.955 456.312.914 381.086c2.35-67.23 53.685-121.708 104.684-165.674 62.099-53.32 129.073-101.353 199.557-142.997C360.876 39.39 420.544 9.74 484.849 2.363c64.306-7.376 134.681 11.079 176.427 60.593z" fill="#FEF0A5"/></svg>
